svg/icon/qlc.svg

<svg height="32" viewBox="0 0 32 32" width="32" xmlns="http://www.w3.org/2000/svg" xmlns:xlink="http://www.w3.org/1999/xlink"><defs><linearGradient id="a" x1="50%" x2="50%" y1="0%" y2="100%"><stop offset="0" stop-color="#fff" stop-opacity=".5"/><stop offset="1" stop-opacity=".5"/></linearGradient><circle id="b" cx="16" cy="15" r="15"/><filter id="c" height="111.7%" width="111.7%" x="-5.8%" y="-4.2%"><feOffset dy=".5" in="SourceAlpha" result="shadowOffsetOuter1"/><feGaussianBlur in="shadowOffsetOuter1" result="shadowBlurOuter1" stdDeviation=".5"/><feComposite in="shadowBlurOuter1" in2="SourceAlpha" operator="out" result="shadowBlurOuter1"/><feColorMatrix in="shadowBlurOuter1" values="0 0 0 0 0   0 0 0 0 0   0 0 0 0 0  0 0 0 0.199473505 0"/></filter><path id="d" d="m16.4899545 4.00279165c5.1293193.27598984 9.282441 3.83618073 10.3010652 8.86805755.1344153.6639868.1702248 1.3514926.2070722 2.0306822.0326956.600187-.3583543 1.0045562-.8989997 1.0037766-.5293576-.0010395-.8773324-.3839689-.8905663-.979608-.0966597-4.3876406-3.059635-8.00604404-7.3373114-8.92016291-.6397702-.13669553-1.3079544-.13890449-1.9618667-.21257974-.4984784-.05626347-.8281592-.43893299-.814017-.92464391.0141421-.48181276.3734047-.83927417.8759051-.86409246.1724305-.00857596.3457692-.00142933.5187186-.00142933zm-.9583967 21.99720835c-4.9226364-.1480002-9.35068669-3.8791904-10.28419842-8.7123909-.14271896-.7389615-.19591421-1.4983234-.24521712-2.2513182-.03023047-.4606328.26247314-.7910669.68894333-.9008652.35524046-.0912169.76704953.0592521.94648618.3961832.09134014.171649.13376659.3878671.13713995.5848542.07291641 4.2033875 2.91678627 7.8214011 6.99582388 8.8277765.736819.1817842 1.5125614.2111504 2.2723453.2913226.4338656.0458683.7818404.3408292.8402254.7631301.0552712.4002112-.1968224.8472004-.5804769.9425754-.2466443.0612011-.513399.0418403-.7710716.0587323zm.4525877-15.003166c2.1768534-.0067568 4.004694 1.7782114 4.0194849 3.9253187.0051897.7405207-.6722063 1.2062211-1.30004.8869617-.3387629-.1724287-.4851147-.4593334-.4993866-.8429125-.0407398-1.0973324-.7966313-1.9498604-1.8675424-2.1320344-1.1521313-.1959476-2.2720859.5861535-2.4957654 1.7429979-.2284801 1.1821824.5110636 2.3333095 1.6633246 2.5814925.1573801.033914.3195607.0537946.4803142.0623706.5350663.0281967.9111956.3969627.9071736.8994358-.0040221.5106591-.4070086.888261-.9529735.8931987-1.7154818.0153328-3.3332661-1.2362369-3.801514-2.9411628-.6991932-2.5445899 1.2128516-5.0673501 3.8469246-5.0756662zm7.5545816 3.7575028c-.0201104.1703497-.0129745.3826696-.0743436.57264-.1306528.4042393-.5604963.6382589-.9798306.5696513-.4378877-.0715962-.7486258-.430487-.7532966-.9203559-.0070062-.7453285-.1277983-1.4698668-.4339953-2.145808-1.0130452-2.2354657-2.7461723-3.43467008-5.2044415-3.55109517-.6008468-.02845658-1.0007194-.38124019-.9956593-.91879666.0048005-.53820616.4066193-.88917064 1.0164184-.88787125 3.6711209.00779632 6.8771077 2.84721718 7.342631 6.50447228.0313981.2463638.052806.493897.0825175.7771634zm-15.06101493.4608797c-.05098959-.407098.05371423-.8080889.51819957-1.0224878.61187509-.2824867 1.25307246.1556666 1.26539816.8743576.011677.6888052.1302635 1.3524022.3776863 1.9940396.8417823 2.1843997 2.8734516 3.6206124 5.2084635 3.6820734.7754829.0202704 1.2267343.5819955.98009 1.2201245-.1385671.3587608-.4425585.568222-.8590384.5644538-2.2016345-.0193608-4.0584082-.8446016-5.5435936-2.4622087-1.24671493-1.3575997-1.91178528-3.0603167-1.94720553-4.8503524zm11.53446833 2.8194362c-.0376259.4468593-.1903352.7303856-.5265032.8874815-.3339623.1559264-.672855.1316279-.9398692-.1153856-.4838173-.447379-.9508975-.9148985-1.4011109-1.3964514-.3106084-.3322533-.2803779-.8555165.0246514-1.1827022.3099597-.332903.8637092-.4011208 1.2027316-.091087.5021113.4589435.9773654.9489424 1.440164 1.4479071.1215706.131368.1553042.3444675.1999363.4502376z"/><filter id="e" height="115.9%" width="115.9%" x="-8%" y="-5.7%"><feOffset dy=".5" in="SourceAlpha" result="shadowOffsetOuter1"/><feGaussianBlur in="shadowOffsetOuter1" result="shadowBlurOuter1" stdDeviation=".5"/><feColorMatrix in="shadowBlurOuter1" values="0 0 0 0 0   0 0 0 0 0   0 0 0 0 0  0 0 0 0.204257246 0"/></filter></defs><g fill="none" fill-rule="evenodd"><g fill-rule="nonzero"><use fill="#000" filter="url(#c)" xlink:href="#b"/><use fill="#610089" fill-rule="evenodd" xlink:href="#b"/><use fill="url(#a)" fill-rule="evenodd" xlink:href="#b"/><circle cx="16" cy="15" r="14.5" stroke="#000" stroke-opacity=".097"/></g><use fill="#000" filter="url(#e)" xlink:href="#d"/><use fill="#fff" xlink:href="#d"/></g></svg>

<svg xmlns="http://www.w3.org/2000/svg" xmlns:xlink="http://www.w3.org/1999/xlink" width="32" height="32" viewBox="0 0 32 32">
  <defs>
    <linearGradient id="qlc-c" x1="50%" x2="50%" y1="0%" y2="100%">
      <stop offset="0%" stop-color="#FFF" stop-opacity=".5"/>
      <stop offset="100%" stop-opacity=".5"/>
    </linearGradient>
    <circle id="qlc-b" cx="16" cy="15" r="15"/>
    <filter id="qlc-a" width="111.7%" height="111.7%" x="-5.8%" y="-4.2%" filterUnits="objectBoundingBox">
      <feOffset dy=".5" in="SourceAlpha" result="shadowOffsetOuter1"/>
      <feGaussianBlur in="shadowOffsetOuter1" result="shadowBlurOuter1" stdDeviation=".5"/>
      <feComposite in="shadowBlurOuter1" in2="SourceAlpha" operator="out" result="shadowBlurOuter1"/>
      <feColorMatrix in="shadowBlurOuter1" values="0 0 0 0 0   0 0 0 0 0   0 0 0 0 0  0 0 0 0.199473505 0"/>
    </filter>
    <path id="qlc-e" d="M16.4899545,4.00279165 C21.6192738,4.27878149 25.7723955,7.83897238 26.7910197,12.8708492 C26.925435,13.534836 26.9612445,14.2223418 26.9980919,14.9015314 C27.0307875,15.5017184 26.6397376,15.9060876 26.0990922,15.905308 C25.5697346,15.9042685 25.2217598,15.5213391 25.2085259,14.9257 C25.1118662,10.5380594 22.1488909,6.91965596 17.8712145,6.00553709 C17.2314443,5.86884156 16.5632601,5.8666326 15.9093478,5.79295735 C15.4108694,5.73669388 15.0811886,5.35402436 15.0953308,4.86831344 C15.1094729,4.38650068 15.4687355,4.02903927 15.9712359,4.00422098 C16.1436664,3.99564502 16.3170051,4.00279165 16.4899545,4.00279165 Z M15.5315578,26 C10.6089214,25.8519998 6.18087111,22.1208096 5.24735938,17.2876091 C5.10464042,16.5486476 5.05144517,15.7892857 5.00214226,15.0362909 C4.97191179,14.5756581 5.2646154,14.245224 5.69108559,14.1354257 C6.04632605,14.0442088 6.45813512,14.1946778 6.63757177,14.5316089 C6.72891191,14.7032579 6.77133836,14.919476 6.77471172,15.1164631 C6.84762813,19.3198506 9.69149799,22.9378642 13.7705356,23.9442396 C14.5073546,24.1260238 15.283097,24.15539 16.0428809,24.2355622 C16.4767465,24.2814305 16.8247213,24.5763914 16.8831063,24.9986923 C16.9383775,25.3989035 16.6862839,25.8458927 16.3026294,25.9412677 C16.0559851,26.0024688 15.7892304,25.983108 15.5315578,26 Z M15.9841455,10.996834 C18.1609989,10.9900772 19.9888395,12.7750454 20.0036304,14.9221527 C20.0088201,15.6626734 19.3314241,16.1283738 18.7035904,15.8091144 C18.3648275,15.6366857 18.2184757,15.349781 18.2042038,14.9662019 C18.163464,13.8688695 17.4075725,13.0163415 16.3366614,12.8341675 C15.1845301,12.6382199 14.0645755,13.420321 13.840896,14.5771654 C13.6124159,15.7593478 14.3519596,16.9104749 15.5042206,17.1586579 C15.6616007,17.1925719 15.8237813,17.2124525 15.9845348,17.2210285 C16.5196011,17.2492252 16.8957304,17.6179912 16.8917084,18.1204643 C16.8876863,18.6311234 16.4846998,19.0087253 15.9387349,19.013663 C14.2232531,19.0289958 12.6054688,17.7774261 12.1372209,16.0725002 C11.4380277,13.5279103 13.3500725,11.0051501 15.9841455,10.996834 Z M23.5387271,14.7543368 C23.5186167,14.9246865 23.5257526,15.1370064 23.4643835,15.3269768 C23.3337307,15.7312161 22.9038872,15.9652357 22.4845529,15.8966281 C22.0466652,15.8250319 21.7359271,15.4661411 21.7312563,14.9762722 C21.7242501,14.2309437 21.603458,13.5064054 21.297261,12.8304642 C20.2842158,10.5949985 18.5510887,9.39579412 16.0928195,9.27936903 C15.4919727,9.25091245 15.0921001,8.89812884 15.0971602,8.36057237 C15.1019607,7.82236621 15.5037795,7.47140173 16.1135786,7.47270112 C19.7846995,7.48049744 22.9906863,10.3199183 23.4562096,13.9771734 C23.4876077,14.2235372 23.5090156,14.4710704 23.5387271,14.7543368 Z M8.47771217,15.2152165 C8.42672258,14.8081185 8.5314264,14.4071276 8.99591174,14.1927287 C9.60778683,13.910242 10.2489842,14.3483953 10.2613099,15.0670863 C10.2729869,15.7558915 10.3915734,16.4194885 10.6389962,17.0611259 C11.4807785,19.2455256 13.5124478,20.6817383 15.8474597,20.7431993 C16.6229426,20.7634697 17.074194,21.3251948 16.8275497,21.9633238 C16.6889826,22.3220846 16.3849912,22.5315458 15.9685113,22.5277776 C13.7668768,22.5084168 11.9101031,21.683176 10.4249177,20.0655689 C9.17820277,18.7079692 8.51313242,17.0052522 8.47771217,15.2152165 Z M20.0121805,18.0346527 C19.9745546,18.481512 19.8218453,18.7650383 19.4856773,18.9221342 C19.151715,19.0780606 18.8128223,19.0537621 18.5458081,18.8067486 C18.0619908,18.3593696 17.5949106,17.8918501 17.1446972,17.4102972 C16.8340888,17.0780439 16.8643193,16.5547807 17.1693486,16.227595 C17.4793083,15.894692 18.0330578,15.8264742 18.3720802,16.136508 C18.8741915,16.5954515 19.3494456,17.0854504 19.8122442,17.5844151 C19.9338148,17.7157831 19.9675484,17.9288826 20.0121805,18.0346527 Z"/>
    <filter id="qlc-d" width="115.9%" height="115.9%" x="-8%" y="-5.7%" filterUnits="objectBoundingBox">
      <feOffset dy=".5" in="SourceAlpha" result="shadowOffsetOuter1"/>
      <feGaussianBlur in="shadowOffsetOuter1" result="shadowBlurOuter1" stdDeviation=".5"/>
      <feColorMatrix in="shadowBlurOuter1" values="0 0 0 0 0   0 0 0 0 0   0 0 0 0 0  0 0 0 0.204257246 0"/>
    </filter>
  </defs>
  <g fill="none" fill-rule="evenodd">
    <g fill-rule="nonzero">
      <use fill="#000" filter="url(#qlc-a)" xlink:href="#qlc-b"/>
      <use fill="#610089" fill-rule="evenodd" xlink:href="#qlc-b"/>
      <use fill="url(#qlc-c)" fill-rule="evenodd" style="mix-blend-mode:soft-light" xlink:href="#qlc-b"/>
      <circle cx="16" cy="15" r="14.5" stroke="#000" stroke-opacity=".097"/>
    </g>
    <use fill="#000" filter="url(#qlc-d)" xlink:href="#qlc-e"/>
    <use fill="#FFF" xlink:href="#qlc-e"/>
  </g>
</svg>
